X:2
T:Old Folks at Home
C:Stephen C. Foster, 1851
M:4/4
L:1/8
K:D
|:"D""^Verses"F4 "A7"E D "Bm"F E | "D"D2 d2 "G"B d3 | "D"A4 "Bm"F2 D2  | "A"E4-"A7"E2 z2 |
"D"F4 "A7"E D "Bm"F E | "D"D2 d2 "G"B d3 | "D"A2 "Bm"F > D "A7"E2 (E > E) | "D"D6 z2 :|
"A7""^Refrain"c3 d e2 A2 | "D"A3 B "D7"A2 d2 | "G"d2 B2 G2 B2 | "A"A4- "A7"A2 z2 |
"D"F4 "A7"E D "Bm"F E | "D"D2 d2 "G"B d3 | "D"A2 F > D "A7"E2 E > E | "D"D6 z2 ||
